FINK
CUT[FRISCH AUF FRISCH AUF]
REG[Europa, Mitteleuropa, Deutschland]
KEY[F0622  16  D 4/4]
MEL[1_  -5__.3_1_3_1_3_  5__.
    4_3_2_1_3_  2__0__
    2__2_3_  2_1_-7_-6_-5_
    -6_-7_1_  2__2__-5__0__
    -7__-7_.-71__0_1_  1#__.1#_2__0__
    4__3_2_1_-7_1_3_  2___.0_
    1_  -5__.3_1_3_1_3_  5__.
    345__234-7  1___0__. //] >>
FCT[Soldaten -, Reiter - Lied]
